public/logos/paradigmxyz.svg

<svg width="169" height="61" viewBox="0 0 169 61" fill="none" xmlns="http://www.w3.org/2000/svg">
<path d="M45.6941 22.6156L23.7285 10L20.9828 11.5781V14.7312L18.2371 13.1531L15.4914 14.7312V17.8844L12.7457 16.3063L10 17.8844V43.1156L12.7457 44.6937L15.4914 43.1156V46.2687L18.2371 47.8469L20.9828 46.2687V49.4219L23.7285 51L45.6941 38.3844V35.2313L42.9484 33.6531L45.6941 32.0751V28.9219L42.9484 27.3438L45.6941 25.7657V22.6156ZM15.4914 39.9625L12.7457 41.5406V19.4625L15.4914 21.0406V39.9625ZM23.7285 41.5375V38.3844L34.7113 32.0781L37.457 33.6562L23.7285 41.5375ZM31.9656 30.5L23.7285 35.2313V25.7687L31.9656 30.5ZM34.7113 28.9219L23.7285 22.6156V19.4625L37.457 27.3469L34.7113 28.9219ZM18.2371 16.3063L20.9828 17.8844V21.0375L18.2371 19.4594V16.3063ZM18.2371 22.6156L20.9828 24.1937V36.8093L18.2371 38.3874V22.6156ZM18.2371 41.5375L20.9828 39.9594V43.1126L18.2371 44.6907V41.5375ZM42.9484 36.8063L23.7285 47.8438V44.6907L40.2027 35.2282L42.9484 36.8063ZM42.9484 30.5L40.2027 32.0781L37.457 30.5L40.2027 28.9219L42.9484 30.5ZM40.2027 25.7687L23.7285 16.3063V13.1531L42.9484 24.1907L40.2027 25.7687Z" fill="#00E100"/>
<path d="M58.7345 38.6606H56.3059V22.0588H63.7158C67.1169 22.0588 69.1808 24.0741 69.1808 27.0389C69.1808 30.0037 67.1169 32.019 63.7158 32.019H58.7369V38.6606H58.7345ZM66.7522 27.0389C66.7522 25.3796 65.7798 24.0741 63.7158 24.0741H58.7369V30.0037H63.7158C65.7798 30.0037 66.7522 28.6982 66.7522 27.0389ZM70.0804 29.5289C70.3235 27.5593 72.0233 25.9708 75.45 25.9708C77.5395 25.9708 79.3112 26.5162 80.2113 27.9861C80.5991 28.6274 80.8191 29.481 80.8191 30.4761V38.6583H78.4864V37.1155C77.7571 38.0649 76.3009 39.0121 74.2345 39.0121C71.6587 39.0121 69.4732 37.7066 69.4732 34.9792C69.4732 32.8452 70.9549 31.3274 74.1129 31.065L78.4864 30.7089V30.4715C78.4864 28.8123 77.7571 27.7441 75.45 27.7441C73.6031 27.7441 72.6075 28.4562 72.4859 29.5221H70.0804V29.5289ZM78.484 33.3245V32.375L74.3536 32.7311C72.6519 32.8726 71.8034 33.6805 71.8034 34.9838C71.8034 36.6453 73.0189 37.2364 74.4752 37.2364C76.6631 37.2387 78.484 35.8145 78.484 33.3245ZM88.0066 28.2257C86.3073 28.2257 85.2133 29.1752 85.2133 31.3091V38.6629H82.8806V26.3268H85.2133V27.751C85.8211 26.6829 86.7916 26.0895 88.6144 26.0895H89.2713V28.2234H88.0066V28.2257ZM89.9751 29.5289C90.2182 27.5593 91.9175 25.9708 95.3442 25.9708C97.4337 25.9708 99.2059 26.5162 100.105 27.9861C100.494 28.6274 100.713 29.481 100.713 30.4761V38.6583H98.3806V37.1155C97.6512 38.0649 96.195 39.0121 94.1286 39.0121C91.5529 39.0121 89.3673 37.7066 89.3673 34.9792C89.3673 32.8452 90.8491 31.3274 94.0071 31.065L98.3806 30.7089V30.4715C98.3806 28.8123 97.6512 27.7441 95.3442 27.7441C93.4977 27.7441 92.5016 28.4562 92.3801 29.5221H89.9751V29.5289ZM98.3806 33.3245V32.375L94.2502 32.7311C92.5484 32.8726 91.7 33.6805 91.7 34.9838C91.7 36.6453 92.9155 37.2364 94.3717 37.2364C96.5573 37.2387 98.3806 35.8145 98.3806 33.3245ZM112.179 37.0013C111.449 38.1882 109.993 39.0167 108.048 39.0167C104.259 39.0167 102.195 36.0519 102.195 32.4937C102.195 28.9355 104.259 25.9708 108.048 25.9708C109.991 25.9708 111.449 26.8016 112.179 27.9861V22.0588H114.509V38.6629H112.176V37.0013H112.179ZM108.413 27.8697C105.863 27.8697 104.526 29.885 104.526 32.4937C104.526 35.1024 105.863 37.12 108.413 37.12C110.963 37.12 112.3 34.986 112.3 32.4937C112.3 30.0037 110.963 27.8697 108.413 27.8697ZM123.499 36.764V38.6606H116.017V36.764H118.593V28.2257H116.017V26.3291H120.923V36.7662H123.499V36.764ZM120.923 24.4302H118.591V22.0588H120.923V24.4302ZM133.312 36.764C132.826 37.4761 131.491 38.5419 129.303 38.5419C125.757 38.5419 123.45 35.6959 123.45 32.2563C123.45 28.8168 125.757 25.9708 129.303 25.9708C131.489 25.9708 132.826 27.0389 133.312 27.7487V26.3245H135.645V37.3528C135.645 41.267 133.338 43.2824 129.668 43.2824C126.849 43.2824 124.785 41.8582 124.298 39.7242H126.727C126.947 40.5778 127.845 41.5021 129.665 41.5021C132.337 41.5021 133.31 39.8428 133.31 37.3505V36.764H133.312ZM129.549 27.8697C127.242 27.8697 125.783 29.885 125.783 32.2586C125.783 34.63 127.239 36.6476 129.549 36.6476C131.977 36.6476 133.436 34.6323 133.436 32.2586C133.434 29.885 131.977 27.8697 129.549 27.8697ZM140.114 27.751C140.843 26.4455 142.299 25.9731 143.758 25.9731C145.457 25.9731 147.037 26.6851 147.767 28.107C148.496 26.8016 149.831 25.9731 152.019 25.9731C154.69 25.9731 156.635 27.5159 156.635 30.5971V38.6606H154.303V30.9531C154.303 28.9378 153.452 27.8697 151.532 27.8697C149.952 27.8697 148.375 28.8191 148.375 31.3091V38.6629H146.042V30.9554C146.042 28.9401 145.191 27.8719 143.272 27.8719C141.692 27.8719 140.114 28.8214 140.114 31.3115V38.6652H137.781V26.3268H140.114V27.751Z" fill="white"/>
</svg>

<svg xmlns="http://www.w3.org/2000/svg" xmlns:xlink="http://www.w3.org/1999/xlink" viewBox="10.0078125 10.0078125 146.78125 40.984375" width="78.79069767441861" height="22"><path fill="#000" d="M45.694 22.616 23.728 10l-2.745 1.578v3.153l-2.746-1.578-2.746 1.578v3.153l-2.745-1.578L10 17.884v25.232l2.746 1.578 2.745-1.578v3.153l2.746 1.578 2.746-1.578v3.153L23.729 51l21.965-12.616v-3.153l-2.746-1.578 2.746-1.578v-3.153l-2.746-1.578 2.746-1.578zM15.491 39.963l-2.745 1.578V19.463l2.745 1.578zm8.238 1.575v-3.154l10.982-6.306 2.746 1.578zM31.966 30.5l-8.237 4.731V25.77zm2.745-1.578L23.73 22.616v-3.154l13.728 7.885zM18.237 16.306l2.746 1.578v3.154l-2.746-1.579zm0 6.31 2.746 1.578v12.615l-2.746 1.578zm0 18.922 2.746-1.579v3.154l-2.746 1.578zm24.711-4.732-19.22 11.038V44.69l16.475-9.463zm0-6.306-2.745 1.578-2.746-1.578 2.746-1.578zm-2.745-4.731-16.475-9.463v-3.153l19.22 11.038zM58.735 38.66h-2.43v-16.6h7.41c3.402 0 5.466 2.015 5.466 4.98s-2.064 4.98-5.465 4.98h-4.98v6.642zm8.017-11.621c0-1.66-.972-2.965-3.036-2.965h-4.98v5.93h4.98c2.064 0 3.036-1.306 3.036-2.965m3.328 2.49c.243-1.97 1.943-3.558 5.37-3.558 2.09 0 3.861.545 4.761 2.015.388.641.608 1.495.608 2.49v8.182h-2.333v-1.543c-.729.95-2.185 1.897-4.252 1.897-2.575 0-4.76-1.305-4.76-4.033 0-2.134 1.48-3.652 4.639-3.914l4.373-.356v-.238c0-1.659-.729-2.727-3.036-2.727-1.847 0-2.843.712-2.964 1.778H70.08zm8.404 3.796v-.95l-4.13.356c-1.702.142-2.55.95-2.55 2.253 0 1.661 1.215 2.252 2.671 2.252 2.188.003 4.009-1.421 4.009-3.911m9.523-5.1c-1.7 0-2.794.95-2.794 3.084v7.354h-2.332V26.327h2.332v1.424c.608-1.068 1.579-1.662 3.401-1.662h.657v2.134h-1.264zm1.968 1.304c.243-1.97 1.943-3.558 5.37-3.558 2.089 0 3.86.545 4.76 2.015.389.641.608 1.495.608 2.49v8.182h-2.332v-1.543c-.73.95-2.186 1.897-4.252 1.897-2.576 0-4.762-1.305-4.762-4.033 0-2.134 1.482-3.652 4.64-3.914l4.374-.356v-.238c0-1.659-.73-2.727-3.037-2.727-1.846 0-2.842.712-2.964 1.778h-2.405zm8.406 3.796v-.95l-4.13.356c-1.703.142-2.551.95-2.551 2.253 0 1.661 1.215 2.252 2.672 2.252 2.185.003 4.009-1.421 4.009-3.911M112.179 37c-.73 1.187-2.186 2.016-4.131 2.016-3.789 0-5.853-2.965-5.853-6.523s2.064-6.523 5.853-6.523c1.943 0 3.401.83 4.131 2.015V22.06h2.33v16.604h-2.333V37zm-3.766-9.131c-2.55 0-3.887 2.015-3.887 4.624s1.337 4.626 3.887 4.626 3.887-2.134 3.887-4.626c0-2.49-1.337-4.624-3.887-4.624m15.086 8.894v1.897h-7.482v-1.897h2.576v-8.538h-2.576v-1.897h4.906v10.437h2.576zm-2.576-12.334h-2.332V22.06h2.332zm12.389 12.334c-.486.712-1.821 1.778-4.009 1.778-3.546 0-5.853-2.846-5.853-6.286s2.307-6.285 5.853-6.285c2.186 0 3.523 1.068 4.009 1.778v-1.424h2.333v11.028c0 3.914-2.307 5.93-5.977 5.93-2.819 0-4.883-1.425-5.37-3.559h2.429c.22.854 1.118 1.778 2.938 1.778 2.672 0 3.645-1.66 3.645-4.152v-.586zm-3.763-8.894c-2.307 0-3.766 2.015-3.766 4.389 0 2.371 1.456 4.389 3.766 4.389 2.428 0 3.887-2.016 3.887-4.39-.002-2.373-1.459-4.388-3.887-4.388m10.565-.119c.729-1.306 2.185-1.778 3.644-1.778 1.699 0 3.279.712 4.009 2.134.729-1.305 2.064-2.134 4.252-2.134 2.671 0 4.616 1.543 4.616 4.624v8.064h-2.332v-7.708c0-2.015-.851-3.083-2.771-3.083-1.58 0-3.157.95-3.157 3.44v7.353h-2.333v-7.708c0-2.015-.851-3.083-2.77-3.083-1.58 0-3.158.95-3.158 3.44v7.353h-2.333V26.327h2.333z"/></svg>
